img/google-play.svg

<svg width="162" height="48" viewBox="0 0 162 48" fill="none" xmlns="http://www.w3.org/2000/svg">
<path fill-rule="evenodd" clip-rule="evenodd" d="M155.998 47.9211H6.00221C2.69414 47.9211 0 45.2203 0 41.931V5.99014C0 2.68884 2.69414 0 6.00221 0H155.998C159.303 0 162 2.68884 162 5.99014V41.931C162 45.2203 159.303 47.9211 155.998 47.9211Z" fill="black"/>
<path fill-rule="evenodd" clip-rule="evenodd" d="M155.998 0.95902C158.772 0.95902 161.043 3.22063 161.043 5.99014V41.931C161.043 44.7005 158.787 46.9621 155.998 46.9621H6.00221C3.2276 46.9621 0.956658 44.7005 0.956658 41.931V5.99014C0.956658 3.22063 3.2127 0.95902 6.00221 0.95902H155.998ZM155.998 0H6.00221C2.69414 0 0 2.70079 0 5.99014V41.931C0 45.2323 2.69414 47.9211 6.00221 47.9211H155.998C159.303 47.9211 162 45.2323 162 41.931V5.99014C162 2.70079 159.303 0 155.998 0Z" fill="#A6A6A6"/>
<path d="M85.3423 15.8523C84.2605 15.8523 83.3485 15.4729 82.6273 14.726C81.9121 14 81.5127 12.9992 81.5306 11.9774C81.5306 10.8869 81.9001 9.96376 82.6273 9.23179C83.3456 8.48489 84.2575 8.10547 85.3393 8.10547C86.4092 8.10547 87.3212 8.48489 88.0543 9.23179C88.7815 9.98766 89.1511 10.9108 89.1511 11.9774C89.1391 13.0709 88.7696 13.994 88.0543 14.723C87.3361 15.4759 86.4241 15.8523 85.3423 15.8523ZM53.1527 15.8523C52.0947 15.8523 51.1768 15.4789 50.4258 14.7409C49.6807 14.006 49.3022 13.0768 49.3022 11.9804C49.3022 10.8839 49.6807 9.95479 50.4258 9.21984C51.1619 8.48191 52.0798 8.10846 53.1527 8.10846C53.6772 8.10846 54.1869 8.21302 54.6756 8.42514C55.1554 8.63129 55.5459 8.91212 55.8349 9.2557L55.9065 9.34234L55.0988 10.137L55.0154 10.0384C54.5594 9.4947 53.9484 9.22881 53.1408 9.22881C52.4196 9.22881 51.7907 9.48574 51.2722 9.99363C50.7506 10.5045 50.4854 11.1737 50.4854 11.9834C50.4854 12.793 50.7506 13.4622 51.2722 13.9731C51.7907 14.481 52.4196 14.7379 53.1408 14.7379C53.9097 14.7379 54.5564 14.481 55.0601 13.9731C55.3581 13.6744 55.5429 13.2561 55.6084 12.7273H53.0186V11.6099H56.7201L56.735 11.7115C56.7618 11.8997 56.7886 12.0939 56.7886 12.2732C56.7886 13.3039 56.4787 14.1374 55.8647 14.7529C55.1674 15.4819 54.2554 15.8523 53.1527 15.8523ZM95.952 15.694H94.8105L91.3147 10.0862L91.3445 11.0961V15.691H90.2031V8.2668H91.5055L91.5412 8.32356L94.8284 13.6056L94.7986 12.5988V8.2668H95.952V15.694ZM76.7652 15.694H75.6088V9.38416H73.6031V8.2668H78.7679V9.38416H76.7622V15.694H76.7652ZM72.6614 15.694H71.508V8.2668H72.6614V15.694ZM66.1794 15.694H65.026V9.38416H63.0203V8.2668H68.1851V9.38416H66.1794V15.694ZM62.2901 15.682H57.8675V8.2668H62.2901V9.38416H59.0238V11.4217H61.9713V12.5271H59.0238V14.5647H62.2901V15.682ZM83.4737 13.9582C83.9893 14.475 84.6151 14.735 85.3423 14.735C86.0904 14.735 86.7013 14.481 87.2109 13.9582C87.7176 13.4503 87.9739 12.7841 87.9739 11.9804C87.9739 11.1767 87.7176 10.5075 87.2139 10.0026C86.6983 9.48574 86.0695 9.22582 85.3453 9.22582C84.5973 9.22582 83.9863 9.47977 83.4797 10.0026C82.973 10.5105 82.7167 11.1767 82.7167 11.9804C82.7167 12.7841 82.97 13.4533 83.4737 13.9582Z" fill="white"/>
<path fill-rule="evenodd" clip-rule="evenodd" d="M81.4232 26.0638C78.6069 26.0638 76.324 28.2059 76.324 31.1606C76.324 34.0885 78.6218 36.2575 81.4232 36.2575C84.2396 36.2575 86.5224 34.1004 86.5224 31.1606C86.5224 28.2059 84.2396 26.0638 81.4232 26.0638ZM81.4232 34.2379C79.8825 34.2379 78.5562 32.9592 78.5562 31.1487C78.5562 29.3113 79.8854 28.0595 81.4232 28.0595C82.964 28.0595 84.2902 29.3113 84.2902 31.1487C84.2932 32.9711 82.964 34.2379 81.4232 34.2379ZM70.298 26.0638C67.4817 26.0638 65.1988 28.2059 65.1988 31.1606C65.1988 34.0885 67.4966 36.2575 70.298 36.2575C73.1143 36.2575 75.3972 34.1004 75.3972 31.1606C75.3972 28.2059 73.1113 26.0638 70.298 26.0638ZM70.298 34.2379C68.7572 34.2379 67.431 32.9592 67.431 31.1487C67.431 29.3113 68.7602 28.0595 70.298 28.0595C71.8388 28.0595 73.165 29.3113 73.165 31.1487C73.165 32.9711 71.8388 34.2379 70.298 34.2379ZM57.0598 27.6203V29.7774H62.2245C62.0666 30.9874 61.6672 31.8806 61.0563 32.4931C60.2993 33.252 59.131 34.0765 57.0717 34.0765C53.8977 34.0765 51.4152 31.5072 51.4152 28.3254C51.4152 25.1436 53.8977 22.5743 57.0717 22.5743C58.7853 22.5743 60.034 23.2525 60.9609 24.1189L62.4868 22.5892C61.1993 21.3523 59.4857 20.4053 57.0836 20.4053C52.7295 20.4053 49.0757 23.9605 49.0757 28.3135C49.0757 32.6783 52.7265 36.2216 57.0836 36.2216C59.435 36.2216 61.1993 35.4508 62.5941 33.9989C64.0156 32.5738 64.4657 30.5631 64.4657 28.9408C64.4657 28.4359 64.4269 27.9818 64.3465 27.5964H57.0568C57.0598 27.5934 57.0598 27.6203 57.0598 27.6203ZM111.208 29.2994C110.782 28.1551 109.494 26.0518 106.854 26.0518C104.237 26.0518 102.061 28.1163 102.061 31.1487C102.061 34.0108 104.213 36.2455 107.107 36.2455C109.432 36.2455 110.785 34.8204 111.342 33.9839L109.616 32.8247C109.044 33.6762 108.248 34.2349 107.119 34.2349C105.977 34.2349 105.179 33.715 104.648 32.6903L111.446 29.867C111.446 29.87 111.208 29.2994 111.208 29.2994ZM104.276 31.0023C104.222 29.0335 105.802 28.0326 106.931 28.0326C107.822 28.0326 108.564 28.4718 108.818 29.1111L104.276 31.0023ZM98.7533 35.9408H100.986V20.9669H98.7533V35.9408ZM95.0877 27.1961H95.0072C94.5035 26.5956 93.5469 26.0518 92.325 26.0518C89.7888 26.0518 87.4523 28.2895 87.4523 31.1636C87.4523 34.0257 89.7769 36.2366 92.325 36.2366C93.532 36.2366 94.5035 35.6898 95.0072 35.0774H95.0877V35.8093C95.0877 37.7543 94.0505 38.8029 92.3786 38.8029C91.0107 38.8029 90.1613 37.817 89.8156 36.9924L87.8755 37.8051C88.4328 39.1495 89.9199 40.8136 92.3756 40.8136C94.9923 40.8136 97.2096 39.269 97.2096 35.5016V26.3566H95.0996V27.1961C95.1026 27.1961 95.0877 27.1961 95.0877 27.1961ZM92.5246 34.2379C90.9839 34.2379 89.6964 32.9472 89.6964 31.1636C89.6964 29.3651 90.9839 28.0625 92.5246 28.0625C94.0505 28.0625 95.2337 29.38 95.2337 31.1636C95.2486 32.9472 94.0535 34.2379 92.5246 34.2379ZM121.659 20.9669H116.322V35.9408H118.554V30.2703H121.662C124.133 30.2703 126.562 28.4748 126.562 25.6246C126.562 22.7744 124.142 20.9669 121.659 20.9669ZM121.725 28.179H118.551V23.0403H121.725C123.397 23.0403 124.342 24.4236 124.342 25.6097C124.342 26.7838 123.385 28.179 121.725 28.179ZM135.509 26.0369C133.887 26.0369 132.216 26.7569 131.524 28.3254L133.503 29.15C133.929 28.3254 134.71 28.0446 135.535 28.0446C136.692 28.0446 137.86 28.7377 137.887 29.9746V30.1329C137.488 29.9058 136.611 29.5593 135.562 29.5593C133.425 29.5593 131.259 30.7304 131.259 32.9263C131.259 34.937 133.011 36.2276 134.963 36.2276C136.462 36.2276 137.288 35.5494 137.803 34.7637H137.884V35.9229H140.036V30.1867C140.036 27.5158 138.057 26.0369 135.509 26.0369ZM135.229 34.2379C134.498 34.2379 133.476 33.8793 133.476 32.9592C133.476 31.8 134.752 31.3608 135.839 31.3608C136.823 31.3608 137.288 31.5729 137.872 31.8657C137.711 33.2101 136.579 34.2259 135.229 34.2379ZM147.886 26.3566L145.323 32.8516H145.242L142.587 26.3566H140.185L144.169 35.4359L141.898 40.4819H144.223L150.353 26.3566H147.886ZM127.793 35.9408H130.025V20.9669H127.793V35.9408Z" fill="white"/>
<path fill-rule="evenodd" clip-rule="evenodd" d="M12.4695 9.02549C12.1237 9.39894 11.9241 9.96957 11.9241 10.7165V37.2075C11.9241 37.9544 12.1237 38.5251 12.4814 38.8836L12.5738 38.9642L27.3796 24.1218V23.7902L12.5618 8.94482L12.4695 9.02549Z" fill="url(#paint0_linear)"/>
<path fill-rule="evenodd" clip-rule="evenodd" d="M32.3059 29.0844L27.3677 24.1339V23.7874L32.3059 18.8369L32.4132 18.9026L38.2545 22.2308C39.9264 23.1749 39.9264 24.7344 38.2545 25.6905L32.4132 29.0187L32.3059 29.0844Z" fill="url(#paint1_linear)"/>
<path fill-rule="evenodd" clip-rule="evenodd" d="M32.413 29.0185L27.3675 23.9604L12.4692 38.8955C13.0146 39.481 13.9296 39.5468 14.9518 38.9761L32.413 29.0185Z" fill="url(#paint2_linear)"/>
<path fill-rule="evenodd" clip-rule="evenodd" d="M32.413 18.9027L14.9518 8.96C13.9296 8.37443 13.0116 8.4551 12.4692 9.04067L27.3675 23.9607L32.413 18.9027Z" fill="url(#paint3_linear)"/>
<path opacity="0.2" fill-rule="evenodd" clip-rule="evenodd" d="M32.3058 28.9111L14.9637 38.7881C13.9952 39.3468 13.1309 39.308 12.5736 38.8001L12.4812 38.8927L12.5736 38.9734C13.1309 39.4783 13.9952 39.5201 14.9637 38.9614L32.425 29.0187L32.3058 28.9111Z" fill="black"/>
<path opacity="0.12" fill-rule="evenodd" clip-rule="evenodd" d="M38.2545 25.517L32.291 28.9109L32.3983 29.0185L38.2396 25.6903C39.077 25.2123 39.4883 24.5849 39.4883 23.9604C39.4376 24.5341 39.0115 25.0778 38.2545 25.517Z" fill="black"/>
<path opacity="0.25" fill-rule="evenodd" clip-rule="evenodd" d="M14.952 9.13313L38.2545 22.4041C39.0115 22.8313 39.4377 23.39 39.5032 23.9606C39.5032 23.3362 39.092 22.7088 38.2545 22.2308L14.952 8.95985C13.2801 8.00083 11.9241 8.80151 11.9241 10.7166V10.8898C11.9241 8.9718 13.2801 8.18606 14.952 9.13313Z" fill="white"/>
<defs>
<linearGradient id="paint0_linear" x1="26.0515" y1="10.4307" x2="2.32741" y2="16.7364" gradientUnits="userSpaceOnUse">
<stop stop-color="#00A0FF"/>
<stop offset="0.00657" stop-color="#00A1FF"/>
<stop offset="0.2601" stop-color="#00BEFF"/>
<stop offset="0.5122" stop-color="#00D2FF"/>
<stop offset="0.7604" stop-color="#00DFFF"/>
<stop offset="1" stop-color="#00E3FF"/>
</linearGradient>
<linearGradient id="paint1_linear" x1="40.4348" y1="23.9607" x2="11.5177" y2="23.9607" gradientUnits="userSpaceOnUse">
<stop stop-color="#FFE000"/>
<stop offset="0.4087" stop-color="#FFBD00"/>
<stop offset="0.7754" stop-color="#FFA500"/>
<stop offset="1" stop-color="#FF9C00"/>
</linearGradient>
<linearGradient id="paint2_linear" x1="29.6694" y1="26.7127" x2="10.5605" y2="58.7954" gradientUnits="userSpaceOnUse">
<stop stop-color="#FF3A44"/>
<stop offset="1" stop-color="#C31162"/>
</linearGradient>
<linearGradient id="paint3_linear" x1="8.7177" y1="0.214385" x2="17.243" y2="14.543" gradientUnits="userSpaceOnUse">
<stop stop-color="#32A071"/>
<stop offset="0.0685" stop-color="#2DA771"/>
<stop offset="0.4762" stop-color="#15CF74"/>
<stop offset="0.8009" stop-color="#06E775"/>
<stop offset="1" stop-color="#00F076"/>
</linearGradient>
</defs>
</svg>

<svg width="162" height="48" viewBox="0 0 162 48" fill="none" xmlns="http://www.w3.org/2000/svg"><path fill-rule="evenodd" clip-rule="evenodd" d="M155.998 47.921H6.002c-3.308 0-6.002-2.7-6.002-5.99V5.991C0 2.688 2.694 0 6.002 0h149.996C159.303 0 162 2.689 162 5.99v35.941c0 3.29-2.697 5.99-6.002 5.99z" fill="#000"/><path fill-rule="evenodd" clip-rule="evenodd" d="M155.998.959c2.774 0 5.045 2.262 5.045 5.031v35.941c0 2.77-2.256 5.031-5.045 5.031H6.002c-2.774 0-5.045-2.262-5.045-5.031V5.991A5.043 5.043 0 016.002.958h149.996zm0-.959H6.002C2.694 0 0 2.7 0 5.99v35.941c0 3.301 2.694 5.99 6.002 5.99h149.996c3.305 0 6.002-2.689 6.002-5.99V5.991C162 2.7 159.303 0 155.998 0z" fill="#A6A6A6"/><path d="M85.342 15.852c-1.082 0-1.993-.38-2.715-1.126a3.841 3.841 0 01-1.096-2.749c0-1.09.37-2.013 1.096-2.745.719-.747 1.63-1.127 2.712-1.127 1.07 0 1.982.38 2.715 1.127.727.756 1.097 1.679 1.097 2.745-.012 1.094-.381 2.017-1.097 2.746-.718.753-1.63 1.13-2.712 1.13zm-32.19 0a3.766 3.766 0 01-2.726-1.111c-.745-.735-1.124-1.664-1.124-2.76 0-1.097.379-2.026 1.124-2.761.736-.738 1.654-1.112 2.727-1.112.524 0 1.034.105 1.523.317.48.206.87.487 1.159.83l.072.087-.808.795-.084-.099c-.456-.543-1.067-.81-1.874-.81a2.59 2.59 0 00-1.869.766c-.521.51-.787 1.18-.787 1.99 0 .809.266 1.478.787 1.99a2.587 2.587 0 001.869.764c.769 0 1.415-.257 1.92-.765.297-.299.482-.717.547-1.246h-2.59V11.61h3.702l.015.101c.027.189.054.383.054.562 0 1.03-.31 1.864-.924 2.48-.698.729-1.61 1.1-2.712 1.1zm42.8-.158h-1.141l-3.496-5.608.03 1.01v4.595h-1.142V8.267h1.302l.036.057 3.287 5.282-.03-1.007V8.267h1.154v7.427zm-19.187 0H75.61v-6.31h-2.006V8.267h5.165v1.117h-2.006v6.31h.003zm-4.104 0h-1.153V8.267h1.153v7.427zm-6.482 0h-1.153v-6.31H63.02V8.267h5.165v1.117H66.18v6.31zm-3.889-.012h-4.422V8.267h4.422v1.117h-3.266v2.038h2.947v1.105h-2.947v2.038h3.266v1.117zm21.184-1.724a2.55 2.55 0 001.868.777c.748 0 1.36-.254 1.869-.777.507-.508.763-1.174.763-1.978 0-.803-.256-1.473-.76-1.977a2.554 2.554 0 00-1.869-.777c-.748 0-1.359.254-1.865.777-.507.508-.763 1.174-.763 1.977 0 .804.253 1.473.757 1.978z" fill="#fff"/><path fill-rule="evenodd" clip-rule="evenodd" d="M81.423 26.064c-2.816 0-5.099 2.142-5.099 5.097 0 2.928 2.298 5.096 5.1 5.096 2.816 0 5.098-2.157 5.098-5.096 0-2.955-2.282-5.097-5.099-5.097zm0 8.174c-1.54 0-2.867-1.279-2.867-3.09 0-1.837 1.33-3.088 2.867-3.088 1.541 0 2.867 1.251 2.867 3.089.003 1.822-1.326 3.089-2.867 3.089zm-11.125-8.174c-2.816 0-5.1 2.142-5.1 5.097 0 2.928 2.299 5.096 5.1 5.096 2.816 0 5.1-2.157 5.1-5.096 0-2.955-2.287-5.097-5.1-5.097zm0 8.174c-1.54 0-2.867-1.279-2.867-3.09 0-1.837 1.33-3.088 2.867-3.088 1.54 0 2.867 1.251 2.867 3.089 0 1.822-1.326 3.089-2.867 3.089zM57.06 27.62v2.157h5.164c-.157 1.21-.557 2.104-1.168 2.716-.757.759-1.925 1.584-3.984 1.584-3.174 0-5.657-2.57-5.657-5.752 0-3.181 2.483-5.75 5.657-5.75 1.713 0 2.962.678 3.889 1.544l1.526-1.53c-1.288-1.237-3.001-2.184-5.403-2.184-4.355 0-8.008 3.555-8.008 7.909 0 4.364 3.65 7.908 8.008 7.908 2.351 0 4.115-.771 5.51-2.223 1.422-1.425 1.872-3.436 1.872-5.058a6.69 6.69 0 00-.12-1.345h-7.29c.004-.003.004.024.004.024zm54.148 1.68c-.426-1.145-1.714-3.248-4.354-3.248-2.617 0-4.793 2.064-4.793 5.097 0 2.862 2.152 5.096 5.046 5.096 2.325 0 3.678-1.425 4.235-2.261l-1.726-1.16c-.572.852-1.368 1.41-2.497 1.41-1.142 0-1.94-.519-2.471-1.544l6.798-2.823c0 .003-.238-.568-.238-.568zm-6.932 1.702c-.054-1.968 1.526-2.97 2.655-2.97.891 0 1.633.44 1.887 1.08l-4.542 1.89zm-5.523 4.939h2.233V20.967h-2.233V35.94zm-3.665-8.745h-.08c-.504-.6-1.461-1.144-2.683-1.144-2.536 0-4.873 2.238-4.873 5.112 0 2.862 2.325 5.073 4.873 5.073 1.207 0 2.178-.547 2.682-1.16h.08v.732c0 1.945-1.037 2.994-2.708 2.994-1.368 0-2.218-.986-2.563-1.81l-1.94.812c.557 1.345 2.044 3.009 4.5 3.009 2.616 0 4.834-1.545 4.834-5.312v-9.145H95.1v.84h-.012zm-2.563 7.042c-1.541 0-2.829-1.29-2.829-3.074 0-1.799 1.288-3.102 2.829-3.102 1.525 0 2.709 1.318 2.709 3.102.015 1.783-1.18 3.074-2.71 3.074zm29.134-13.271h-5.337V35.94h2.232v-5.67h3.108c2.471 0 4.9-1.796 4.9-4.646 0-2.85-2.42-4.658-4.903-4.658zm.066 7.212h-3.174V23.04h3.174c1.672 0 2.617 1.384 2.617 2.57 0 1.174-.957 2.569-2.617 2.569zm13.784-2.142c-1.622 0-3.293.72-3.985 2.288l1.979.825c.426-.825 1.207-1.105 2.032-1.105 1.157 0 2.325.693 2.352 1.93v.158c-.399-.227-1.276-.574-2.325-.574-2.137 0-4.303 1.171-4.303 3.367 0 2.011 1.752 3.302 3.704 3.302 1.499 0 2.325-.679 2.84-1.464h.081v1.159h2.152v-5.736c0-2.671-1.979-4.15-4.527-4.15zm-.28 8.2c-.731 0-1.753-.358-1.753-1.278 0-1.159 1.276-1.598 2.363-1.598.984 0 1.449.212 2.033.505a2.69 2.69 0 01-2.643 2.372zm12.657-7.88l-2.563 6.495h-.081l-2.655-6.495h-2.402l3.984 9.079-2.271 5.046h2.325l6.13-14.125h-2.467zm-20.093 9.584h2.232V20.967h-2.232V35.94z" fill="#fff"/><path fill-rule="evenodd" clip-rule="evenodd" d="M12.47 9.025c-.346.374-.546.945-.546 1.691v26.492c0 .746.2 1.317.557 1.676l.093.08L27.38 24.122v-.332L12.562 8.945l-.092.08z" fill="url(#paint0_linear)"/><path fill-rule="evenodd" clip-rule="evenodd" d="M32.306 29.084l-4.938-4.95v-.347l4.938-4.95.107.066 5.842 3.328c1.671.944 1.671 2.503 0 3.46l-5.842 3.328-.107.065z" fill="url(#paint1_linear)"/><path fill-rule="evenodd" clip-rule="evenodd" d="M32.413 29.018l-5.045-5.058-14.899 14.935c.546.586 1.46.652 2.483.081l17.461-9.957z" fill="url(#paint2_linear)"/><path fill-rule="evenodd" clip-rule="evenodd" d="M32.413 18.903L14.952 8.96c-1.022-.586-1.94-.505-2.483.08l14.899 14.92 5.045-5.057z" fill="url(#paint3_linear)"/><path opacity=".2" fill-rule="evenodd" clip-rule="evenodd" d="M32.306 28.911l-17.342 9.877c-.969.559-1.833.52-2.39.012l-.093.093.093.08c.557.505 1.421.547 2.39-.012l17.461-9.942-.12-.108z" fill="#000"/><path opacity=".12" fill-rule="evenodd" clip-rule="evenodd" d="M38.255 25.517l-5.964 3.394.107.107 5.842-3.328c.837-.478 1.248-1.105 1.248-1.73-.05.574-.477 1.118-1.233 1.557z" fill="#000"/><path opacity=".25" fill-rule="evenodd" clip-rule="evenodd" d="M14.952 9.133l23.303 13.271c.756.427 1.183.986 1.248 1.557 0-.625-.411-1.252-1.248-1.73L14.951 8.96c-1.672-.96-3.028-.158-3.028 1.757v.173c0-1.918 1.356-2.704 3.028-1.757z" fill="#fff"/><defs><linearGradient id="paint0_linear" x1="26.052" y1="10.431" x2="2.327" y2="16.736" gradientUnits="userSpaceOnUse"><stop stop-color="#00A0FF"/><stop offset=".007" stop-color="#00A1FF"/><stop offset=".26" stop-color="#00BEFF"/><stop offset=".512" stop-color="#00D2FF"/><stop offset=".76" stop-color="#00DFFF"/><stop offset="1" stop-color="#00E3FF"/></linearGradient><linearGradient id="paint1_linear" x1="40.435" y1="23.961" x2="11.518" y2="23.961" gradientUnits="userSpaceOnUse"><stop stop-color="#FFE000"/><stop offset=".409" stop-color="#FFBD00"/><stop offset=".775" stop-color="orange"/><stop offset="1" stop-color="#FF9C00"/></linearGradient><linearGradient id="paint2_linear" x1="29.669" y1="26.713" x2="10.56" y2="58.795" gradientUnits="userSpaceOnUse"><stop stop-color="#FF3A44"/><stop offset="1" stop-color="#C31162"/></linearGradient><linearGradient id="paint3_linear" x1="8.718" y1=".214" x2="17.243" y2="14.543" gradientUnits="userSpaceOnUse"><stop stop-color="#32A071"/><stop offset=".069" stop-color="#2DA771"/><stop offset=".476" stop-color="#15CF74"/><stop offset=".801" stop-color="#06E775"/><stop offset="1" stop-color="#00F076"/></linearGradient></defs></svg>
